apps/mobile/assets/icons/phosphor/export.svg

<svg
  height="32"
  viewBox="0 0 256 256"
  width="32"
  xmlns="http://www.w3.org/2000/svg"
>
  <path
    d="m216 112v96a16 16 0 0 1 -16 16h-144a16 16 0 0 1 -16-16v-96a16 16 0 0 1 16-16h24a8 8 0 0 1 0 16h-24v96h144v-96h-24a8 8 0 0 1 0-16h24a16 16 0 0 1 16 16zm-122.34-42.34 26.34-26.35v92.69a8 8 0 0 0 16 0v-92.69l26.34 26.35a8 8 0 0 0 11.32-11.32l-40-40a8 8 0 0 0 -11.32 0l-40 40a8 8 0 0 0 11.32 11.32z"
  />
</svg>

<svg xmlns="http://www.w3.org/2000/svg" width="32" height="32" fill="#000000" viewBox="0 0 256 256"><path d="M216,112v96a16,16,0,0,1-16,16H56a16,16,0,0,1-16-16V112A16,16,0,0,1,56,96H80a8,8,0,0,1,0,16H56v96H200V112H176a8,8,0,0,1,0-16h24A16,16,0,0,1,216,112ZM93.66,69.66,120,43.31V136a8,8,0,0,0,16,0V43.31l26.34,26.35a8,8,0,0,0,11.32-11.32l-40-40a8,8,0,0,0-11.32,0l-40,40A8,8,0,0,0,93.66,69.66Z"></path></svg>
